X: 325
T: A Punch In The Dark
R: reel
M: 4/4
K: Adorian
|:A3c BAcB|AcBG E3G|AcBA cBAc|Bggf gedB|
cBAc BAcB|AcBG E3D|B3E DEGA|BcdB cdBc:|
|:g2 gf gdBd|g3d fgaf|g2 gf gdBd|cA A2 cdef|
g2 gf gdBd|g3d fgaf|g2 fd (3efg dB|1 cBAB cdef:|2 cdBc AcBc||

